; G-Code generated by Simplify3D(R) Version 4.0.1
; Jul 12, 2022 at 12:37:38 PM
; Settings Summary
;   processName,FriBox
;   applyToModels,FAS.v1.0.0.Print2
;   profileName,FriBox-Default
;   profileVersion,2018-12-20 11:03:27
;   baseProfile,Default
;   printMaterial,
;   printQuality,
;   printExtruders,
;   extruderName,Primary Extruder
;   extruderToolheadNumber,0
;   extruderDiameter,0.4
;   extruderAutoWidth,0
;   extruderWidth,0.4
;   extrusionMultiplier,1
;   extruderUseRetract,1
;   extruderRetractionDistance,1
;   extruderExtraRestartDistance,0
;   extruderRetractionZLift,0
;   extruderRetractionSpeed,1800
;   extruderUseCoasting,0
;   extruderCoastingDistance,0.2
;   extruderUseWipe,0
;   extruderWipeDistance,5
;   primaryExtruder,0
;   layerHeight,0.25
;   topSolidLayers,4
;   bottomSolidLayers,4
;   perimeterOutlines,2
;   printPerimetersInsideOut,1
;   startPointOption,2
;   startPointOriginX,0
;   startPointOriginY,0
;   sequentialIslands,0
;   spiralVaseMode,0
;   firstLayerHeightPercentage,100
;   firstLayerWidthPercentage,100
;   firstLayerUnderspeed,0.5
;   useRaft,0
;   raftExtruder,0
;   raftTopLayers,3
;   raftBaseLayers,1
;   raftOffset,2
;   raftSeparationDistance,0.1
;   raftTopInfill,100
;   aboveRaftSpeedMultiplier,0.5
;   useSkirt,1
;   skirtExtruder,0
;   skirtLayers,1
;   skirtOutlines,3
;   skirtOffset,2
;   usePrimePillar,0
;   primePillarExtruder,999
;   primePillarWidth,12
;   primePillarLocation,7
;   primePillarSpeedMultiplier,1
;   useOozeShield,0
;   oozeShieldExtruder,999
;   oozeShieldOffset,2
;   oozeShieldOutlines,1
;   oozeShieldSidewallShape,1
;   oozeShieldSidewallAngle,30
;   oozeShieldSpeedMultiplier,1
;   infillExtruder,0
;   internalInfillPattern,Rectilinear
;   externalInfillPattern,Rectilinear
;   infillPercentage,100
;   outlineOverlapPercentage,25
;   infillExtrusionWidthPercentage,140
;   minInfillLength,2
;   infillLayerInterval,1
;   internalInfillAngles,45,-45
;   overlapInternalInfillAngles,0
;   externalInfillAngles,45,-45
;   generateSupport,1
;   supportExtruder,0
;   supportInfillPercentage,25
;   supportExtraInflation,0
;   supportBaseLayers,0
;   denseSupportExtruder,0
;   denseSupportLayers,0
;   denseSupportInfillPercentage,100
;   supportLayerInterval,1
;   supportHorizontalPartOffset,0.4
;   supportUpperSeparationLayers,1
;   supportLowerSeparationLayers,1
;   supportType,0
;   supportGridSpacing,3.5
;   maxOverhangAngle,42
;   supportAngles,0
;   temperatureName,E0,Bed
;   temperatureNumber,0,1
;   temperatureSetpointCount,2,2
;   temperatureSetpointLayers,1,2,1,2
;   temperatureSetpointTemperatures,200,197,65,60
;   temperatureStabilizeAtStartup,1,1
;   temperatureHeatedBed,0,1
;   temperatureRelayBetweenLayers,0,0
;   temperatureRelayBetweenLoops,0,0
;   fanLayers,1,2
;   fanSpeeds,0,100
;   blipFanToFullPower,1
;   adjustSpeedForCooling,1
;   minSpeedLayerTime,15
;   minCoolingSpeedSlowdown,20
;   increaseFanForCooling,0
;   minFanLayerTime,45
;   maxCoolingFanSpeed,100
;   increaseFanForBridging,0
;   bridgingFanSpeed,100
;   use5D,1
;   relativeEdistances,0
;   allowEaxisZeroing,1
;   independentExtruderAxes,0
;   includeM10123,0
;   stickySupport,1
;   applyToolheadOffsets,0
;   gcodeXoffset,0
;   gcodeYoffset,0
;   gcodeZoffset,0
;   overrideMachineDefinition,1
;   machineTypeOverride,0
;   strokeXoverride,195
;   strokeYoverride,190
;   strokeZoverride,280
;   originOffsetXoverride,0
;   originOffsetYoverride,0
;   originOffsetZoverride,0
;   homeXdirOverride,-1
;   homeYdirOverride,-1
;   homeZdirOverride,-1
;   flipXoverride,1
;   flipYoverride,-1
;   flipZoverride,1
;   toolheadOffsets,0,0|0,0|0,0|0,0|0,0|0,0
;   overrideFirmwareConfiguration,0
;   firmwareTypeOverride,RepRap (Marlin/Repetier/Sprinter)
;   GPXconfigOverride,r2
;   baudRateOverride,115200
;   overridePrinterModels,0
;   printerModelsOverride
;   startingGcode,G21 ;metric values,G90 ;absolute positioning,M82 ;set extruder to absolute mode,M107 ;start with the fan off,G28 X0 Y0 ;move X/Y to min endstops,G28 Z0 ;move Z to min endstops,G1 Z15.0 F9000 ;move the platform down 15mm,G92 E0 ;zero the extruded length,G1 F200 E3 ;extrude 3mm of feed stock,G92 E0 ;zero the extruded length again,G1 F9000,M300 S3000 P800,M117 Printing...
;   layerChangeGcode,
;   retractionGcode,
;   toolChangeGcode,
;   endingGcode,M104 S0 ;extruder heater off,M140 S0 ;heated bed heater off (if you have it),G91 ;relative positioning,G1 E-1 F300  ;retract the filament a bit before lifting the nozzle, to release some of the pressure,G1 Z+0.5 E-5 X-20 Y-20 F9000 ;move Z up a bit and retract filament even more,G28 X0 Y0 ;move X/Y to min endstops, so the head is out of the way,M84 ;steppers off,G90 ;absolute positioning,M300 S4000 P700,M300 S2000 P700
;   exportFileFormat,gcode
;   celebration,0
;   celebrationSong,Random Song
;   postProcessing,
;   defaultSpeed,3000
;   outlineUnderspeed,0.45
;   solidInfillUnderspeed,0.6
;   supportUnderspeed,0.55
;   rapidXYspeed,3600
;   rapidZspeed,1002
;   minBridgingArea,50
;   bridgingExtraInflation,0
;   bridgingExtrusionMultiplier,1
;   bridgingSpeedMultiplier,1
;   useFixedBridgingAngle,0
;   fixedBridgingAngle,0
;   applyBridgingToPerimeters,0
;   filamentDiameters,1.75|1.75|1.75|1.75|1.75|1.75
;   filamentPricesPerKg,65|46|46|46|46|46
;   filamentDensities,1.25|1.25|1.25|1.25|1.25|1.25
;   useMinPrintHeight,0
;   minPrintHeight,0
;   useMaxPrintHeight,0
;   maxPrintHeight,0
;   useDiaphragm,1
;   diaphragmLayerInterval,30
;   robustSlicing,1
;   mergeAllIntoSolid,0
;   onlyRetractWhenCrossingOutline,1
;   retractBetweenLayers,1
;   useRetractionMinTravel,0
;   retractionMinTravel,3
;   retractWhileWiping,0
;   onlyWipeOutlines,1
;   avoidCrossingOutline,0
;   maxMovementDetourFactor,3
;   toolChangeRetractionDistance,12
;   toolChangeExtraRestartDistance,-0.5
;   toolChangeRetractionSpeed,600
;   externalThinWallType,0
;   internalThinWallType,2
;   thinWallAllowedOverlapPercentage,20
;   singleExtrusionMinLength,1
;   singleExtrusionMinPrintingWidthPercentage,50
;   singleExtrusionMaxPrintingWidthPercentage,200
;   singleExtrusionEndpointExtension,0.2
;   horizontalSizeCompensation,0
G90
M82
M106 S255
G4 P500
M106 S0
M140 S65
M190 S65
M104 S200 T0
M109 S200 T0
G21 ;metric values
G90 ;absolute positioning
M82 ;set extruder to absolute mode
M107 ;start with the fan off
G28 X0 Y0 ;move X/Y to min endstops
G28 Z0 ;move Z to min endstops
G1 Z15.0 F9000 ;move the platform down 15mm
G92 E0 ;zero the extruded length
G1 F200 E3 ;extrude 3mm of feed stock
G92 E0 ;zero the extruded length again
G1 F9000
M300 S3000 P800
M117 Printing...
G92 E0
G1 E-1.0000 F1800
G1 Z0.250 F1002
; process FriBox
; layer 1, Z = 0.250
T0
; tool H0.250 W0.400
; skirt
G1 X60.924 Y71.250 F3600
G1 E0.0000 F540
G92 E0
G1 X60.974 Y71.211 E0.0026 F1500
G1 X60.984 Y71.203 E0.0032
G1 X62.884 Y69.768 E0.1021
G1 X62.893 Y69.761 E0.1026
G1 X62.943 Y69.725 E0.1052
G1 X62.953 Y69.718 E0.1057
G1 X64.919 Y68.380 E0.2046
G1 X64.929 Y68.374 E0.2051
G1 X64.979 Y68.341 E0.2075
G1 X64.989 Y68.335 E0.2080
G1 X67.015 Y67.093 E0.3068
G1 X67.025 Y67.087 E0.3073
G1 X67.075 Y67.058 E0.3097
G1 X67.085 Y67.053 E0.3102
G1 X69.166 Y65.905 E0.4090
G1 X69.176 Y65.900 E0.4095
G1 X69.226 Y65.874 E0.4118
G1 X69.236 Y65.869 E0.4122
G1 X71.361 Y64.818 E0.5108
G1 X71.369 Y64.814 E0.5112
G1 X71.406 Y64.797 E0.5129
G1 X71.413 Y64.793 E0.5132
G1 X72.508 Y64.296 E0.5632
G1 X72.515 Y64.293 E0.5635
G1 X72.552 Y64.277 E0.5652
G1 X72.560 Y64.274 E0.5655
G1 X74.747 Y63.365 E0.6640
G1 X74.756 Y63.361 E0.6645
G1 X74.805 Y63.342 E0.6666
G1 X74.815 Y63.338 E0.6671
G1 X77.045 Y62.519 E0.7658
G1 X77.055 Y62.516 E0.7663
G1 X77.104 Y62.499 E0.7684
G1 X77.113 Y62.496 E0.7688
G1 X79.369 Y61.771 E0.8673
G1 X79.377 Y61.769 E0.8677
G1 X79.413 Y61.758 E0.8692
G1 X79.420 Y61.756 E0.8696
G1 X80.574 Y61.424 E0.9195
G1 X80.581 Y61.422 E0.9198
G1 X80.617 Y61.412 E0.9213
G1 X80.625 Y61.410 E0.9217
G1 X82.920 Y60.823 E1.0202
G1 X82.930 Y60.821 E1.0206
G1 X82.978 Y60.810 E1.0226
G1 X82.988 Y60.808 E1.0231
G1 X85.347 Y60.304 E1.1233
G1 X85.356 Y60.302 E1.1237
G1 X85.404 Y60.293 E1.1258
G1 X85.414 Y60.291 E1.1262
G1 X87.710 Y59.893 E1.2231
G1 X87.717 Y59.892 E1.2234
G1 X87.753 Y59.886 E1.2249
G1 X87.760 Y59.885 E1.2252
G1 X88.947 Y59.714 E1.2750
G1 X88.954 Y59.713 E1.2753
G1 X88.990 Y59.709 E1.2768
G1 X88.997 Y59.708 E1.2771
G1 X91.350 Y59.438 E1.3756
G1 X91.360 Y59.437 E1.3760
G1 X91.407 Y59.432 E1.3780
G1 X91.417 Y59.432 E1.3784
G1 X93.779 Y59.251 E1.4769
G1 X93.786 Y59.251 E1.4772
G1 X93.821 Y59.249 E1.4786
G1 X93.828 Y59.248 E1.4789
G1 X95.026 Y59.191 E1.5288
G1 X95.033 Y59.191 E1.5291
G1 X95.069 Y59.190 E1.5306
G1 X95.076 Y59.189 E1.5309
G1 X97.438 Y59.144 E1.6291
G1 X97.445 Y59.144 E1.6294
G1 X97.481 Y59.144 E1.6308
G1 X97.488 Y59.144 E1.6311
G1 X98.687 Y59.155 E1.6810
G1 X98.694 Y59.155 E1.6813
G1 X98.730 Y59.156 E1.6828
G1 X98.737 Y59.156 E1.6831
G1 X101.103 Y59.245 E1.7815
G1 X101.113 Y59.245 E1.7819
G1 X101.160 Y59.248 E1.7839
G1 X101.169 Y59.249 E1.7843
G1 X103.537 Y59.428 E1.8830
G1 X103.547 Y59.428 E1.8834
G1 X103.594 Y59.433 E1.8854
G1 X103.603 Y59.434 E1.8858
G1 X105.963 Y59.703 E1.9845
G1 X105.973 Y59.704 E1.9849
G1 X106.022 Y59.710 E1.9870
G1 X106.031 Y59.712 E1.9874
G1 X108.773 Y60.134 E2.1027
G1 X108.786 Y60.136 E2.1033
G1 X108.851 Y60.148 E2.1060
G1 X108.864 Y60.150 E2.1066
G1 X111.960 Y60.795 E2.2380
G1 X111.969 Y60.797 E2.2384
G1 X112.015 Y60.808 E2.2404
G1 X112.024 Y60.810 E2.2408
G1 X113.570 Y61.193 E2.3070
G1 X113.576 Y61.195 E2.3072
G1 X113.608 Y61.203 E2.3086
G1 X113.615 Y61.205 E2.3089
G1 X115.143 Y61.627 E2.3748
G1 X115.150 Y61.629 E2.3751
G1 X115.182 Y61.639 E2.3765
G1 X115.188 Y61.641 E2.3768
G1 X116.705 Y62.104 E2.4427
G1 X116.711 Y62.106 E2.4430
G1 X116.743 Y62.116 E2.4444
G1 X116.750 Y62.118 E2.4447
G1 X118.253 Y62.623 E2.5106
G1 X118.260 Y62.625 E2.5109
G1 X118.292 Y62.636 E2.5123
G1 X118.299 Y62.639 E2.5126
G1 X119.789 Y63.185 E2.5786
G1 X119.795 Y63.187 E2.5789
G1 X119.828 Y63.200 E2.5803
G1 X119.835 Y63.202 E2.5806
G1 X121.308 Y63.790 E2.6466
G1 X121.314 Y63.792 E2.6469
G1 X121.347 Y63.806 E2.6483
G1 X121.354 Y63.809 E2.6486
G1 X122.810 Y64.438 E2.7146
G1 X122.816 Y64.441 E2.7149
G1 X122.849 Y64.456 E2.7164
G1 X122.856 Y64.459 E2.7167
G1 X124.293 Y65.129 E2.7826
G1 X124.300 Y65.132 E2.7829
G1 X124.333 Y65.148 E2.7845
G1 X124.340 Y65.152 E2.7848
G1 X125.757 Y65.865 E2.8507
G1 X125.764 Y65.868 E2.8510
G1 X125.797 Y65.885 E2.8526
G1 X125.804 Y65.889 E2.8529
G1 X127.200 Y66.645 E2.9189
G1 X127.207 Y66.648 E2.9192
G1 X127.240 Y66.667 E2.9208
G1 X127.247 Y66.671 E2.9211
G1 X128.619 Y67.468 E2.9871
G1 X128.626 Y67.472 E2.9875
G1 X128.659 Y67.492 E2.9891
G1 X128.665 Y67.496 E2.9894
G1 X130.012 Y68.336 E3.0554
G1 X130.019 Y68.340 E3.0557
G1 X130.052 Y68.362 E3.0574
G1 X130.059 Y68.366 E3.0577
G1 X131.378 Y69.248 E3.1236
G1 X131.384 Y69.252 E3.1240
G1 X131.418 Y69.275 E3.1257
G1 X131.424 Y69.280 E3.1260
G1 X132.715 Y70.205 E3.1920
G1 X132.722 Y70.210 E3.1924
G1 X132.755 Y70.234 E3.1941
G1 X132.762 Y70.239 E3.1944
G1 X134.022 Y71.207 E3.2605
G1 X134.029 Y71.212 E3.2608
G1 X134.062 Y71.239 E3.2626
G1 X134.069 Y71.244 E3.2630
G1 X135.293 Y72.252 E3.3289
G1 X135.299 Y72.257 E3.3292
G1 X135.328 Y72.282 E3.3308
G1 X135.334 Y72.287 E3.3311
G1 X136.528 Y73.333 E3.3971
G1 X136.535 Y73.340 E3.3975
G1 X136.570 Y73.371 E3.3995
G1 X136.576 Y73.377 E3.3999
G1 X137.808 Y74.541 E3.4703
G1 X137.843 Y74.577 E3.4724
G1 X138.008 Y74.768 E3.4829
G1 X138.039 Y74.808 E3.4850
G1 X138.354 Y75.257 E3.5078
G1 X138.401 Y75.340 E3.5118
G1 X138.597 Y75.777 E3.5316
G1 X138.627 Y75.867 E3.5356
G1 X138.798 Y76.593 E3.5666
G1 X138.809 Y76.670 E3.5699
G1 X138.838 Y77.060 E3.5861
G1 X138.838 Y77.138 E3.5894
G1 X134.668 Y128.045 E5.7129
G1 X134.640 Y128.173 E5.7184
G1 X134.418 Y128.793 E5.7457
G1 X134.358 Y128.909 E5.7512
G1 X133.844 Y129.651 E5.7887
G1 X133.769 Y129.737 E5.7934
G1 X133.344 Y130.122 E5.8173
G1 X133.251 Y130.188 E5.8220
G1 X132.487 Y130.614 E5.8584
G1 X132.377 Y130.659 E5.8633
G1 X131.801 Y130.818 E5.8882
G1 X131.683 Y130.836 E5.8931
G1 X130.789 Y130.865 E5.9303
G1 X130.781 Y130.865 E5.9306
G1 X130.741 Y130.865 E5.9323
G1 X130.733 Y130.866 E5.9326
G1 X64.170 Y130.866 E8.7000
G1 X64.164 Y130.866 E8.7003
G1 X64.135 Y130.865 E8.7015
G1 X64.129 Y130.865 E8.7017
G1 X63.399 Y130.848 E8.7321
G1 X63.291 Y130.833 E8.7366
G1 X62.760 Y130.703 E8.7593
G1 X62.658 Y130.665 E8.7639
G1 X61.888 Y130.284 E8.7996
G1 X61.791 Y130.221 E8.8044
G1 X61.344 Y129.851 E8.8285
G1 X61.264 Y129.768 E8.8333
G1 X60.725 Y129.058 E8.8704
G1 X60.662 Y128.948 E8.8756
G1 X60.417 Y128.363 E8.9020
G1 X60.384 Y128.241 E8.9072
G1 X60.258 Y127.377 E8.9436
G1 X60.256 Y127.361 E8.9442
G1 X60.248 Y127.284 E8.9475
G1 X60.246 Y127.268 E8.9481
G1 X56.169 Y77.236 E11.0351
G1 X56.167 Y77.189 E11.0371
G1 X56.170 Y76.953 E11.0469
G1 X56.173 Y76.906 E11.0488
G1 X56.223 Y76.439 E11.0684
G1 X56.234 Y76.377 E11.0710
G1 X56.307 Y76.070 E11.0841
G1 X56.325 Y76.009 E11.0867
G1 X56.481 Y75.595 E11.1051
G1 X56.504 Y75.543 E11.1075
G1 X56.634 Y75.290 E11.1193
G1 X56.663 Y75.241 E11.1217
G1 X56.913 Y74.864 E11.1405
G1 X56.949 Y74.817 E11.1430
G1 X57.141 Y74.591 E11.1553
G1 X57.182 Y74.549 E11.1578
G1 X59.029 Y72.841 E11.2623
G1 X59.038 Y72.833 E11.2628
G1 X59.084 Y72.793 E11.2654
G1 X59.093 Y72.785 E11.2659
G1 X60.914 Y71.258 E11.3647
G1 X60.924 Y71.250 E11.3652
G1 X61.175 Y71.562 F3600
G92 E0
G1 X61.221 Y71.525 E0.0024 F1500
G1 X61.227 Y71.521 E0.0027
G1 X63.123 Y70.089 E0.1015
G1 X63.129 Y70.085 E0.1018
G1 X63.175 Y70.052 E0.1042
G1 X63.181 Y70.048 E0.1045
G1 X65.142 Y68.712 E0.2031
G1 X65.148 Y68.708 E0.2034
G1 X65.194 Y68.679 E0.2057
G1 X65.200 Y68.675 E0.2060
G1 X67.222 Y67.436 E0.3046
G1 X67.228 Y67.432 E0.3049
G1 X67.274 Y67.405 E0.3071
G1 X67.280 Y67.402 E0.3074
G1 X69.357 Y66.257 E0.4060
G1 X69.363 Y66.253 E0.4063
G1 X69.409 Y66.229 E0.4084
G1 X69.415 Y66.226 E0.4087
G1 X71.537 Y65.177 E0.5071
G1 X71.542 Y65.175 E0.5073
G1 X71.576 Y65.159 E0.5089
G1 X71.580 Y65.157 E0.5091
G1 X72.672 Y64.661 E0.5589
G1 X72.676 Y64.659 E0.5591
G1 X72.710 Y64.645 E0.5607
G1 X72.715 Y64.643 E0.5609
G1 X74.898 Y63.735 E0.6592
G1 X74.904 Y63.733 E0.6595
G1 X74.949 Y63.715 E0.6615
G1 X74.955 Y63.713 E0.6617
G1 X77.181 Y62.895 E0.7603
G1 X77.187 Y62.893 E0.7606
G1 X77.232 Y62.878 E0.7626
G1 X77.237 Y62.876 E0.7628
G1 X79.490 Y62.153 E0.8612
G1 X79.495 Y62.151 E0.8614
G1 X79.528 Y62.141 E0.8628
G1 X79.532 Y62.140 E0.8630
G1 X80.683 Y61.809 E0.9128
G1 X80.688 Y61.807 E0.9130
G1 X80.721 Y61.798 E0.9144
G1 X80.725 Y61.797 E0.9146
G1 X83.017 Y61.211 E1.0130
G1 X83.023 Y61.210 E1.0132
G1 X83.068 Y61.200 E1.0151
G1 X83.073 Y61.198 E1.0154
G1 X85.428 Y60.695 E1.1155
G1 X85.434 Y60.694 E1.1157
G1 X85.478 Y60.686 E1.1176
G1 X85.484 Y60.685 E1.1178
G1 X87.777 Y60.287 E1.2146
G1 X87.781 Y60.287 E1.2148
G1 X87.814 Y60.282 E1.2161
G1 X87.818 Y60.281 E1.2163
G1 X89.003 Y60.110 E1.2661
G1 X89.007 Y60.110 E1.2662
G1 X89.039 Y60.106 E1.2676
G1 X89.044 Y60.105 E1.2678
G1 X91.394 Y59.835 E1.3661
G1 X91.400 Y59.835 E1.3664
G1 X91.443 Y59.831 E1.3682
G1 X91.449 Y59.830 E1.3684
G1 X93.808 Y59.650 E1.4668
G1 X93.812 Y59.650 E1.4670
G1 X93.845 Y59.648 E1.4683
G1 X93.849 Y59.648 E1.4685
G1 X95.044 Y59.591 E1.5182
G1 X95.048 Y59.591 E1.5184
G1 X95.081 Y59.589 E1.5198
G1 X95.085 Y59.589 E1.5200
G1 X97.444 Y59.544 E1.6181
G1 X97.448 Y59.544 E1.6182
G1 X97.481 Y59.544 E1.6196
G1 X97.486 Y59.544 E1.6198
G1 X98.682 Y59.555 E1.6695
G1 X98.686 Y59.555 E1.6697
G1 X98.719 Y59.556 E1.6710
G1 X98.723 Y59.556 E1.6712
G1 X101.086 Y59.644 E1.7696
G1 X101.092 Y59.645 E1.7698
G1 X101.136 Y59.647 E1.7716
G1 X101.141 Y59.648 E1.7718
G1 X103.505 Y59.826 E1.8704
G1 X103.511 Y59.827 E1.8706
G1 X103.554 Y59.831 E1.8724
G1 X103.560 Y59.831 E1.8727
G1 X105.916 Y60.100 E1.9713
G1 X105.922 Y60.100 E1.9715
G1 X105.967 Y60.106 E1.9734
G1 X105.973 Y60.107 E1.9736
G1 X108.710 Y60.529 E2.0888
G1 X108.717 Y60.530 E2.0891
G1 X108.777 Y60.541 E2.0916
G1 X108.785 Y60.542 E2.0920
G1 X111.876 Y61.187 E2.2233
G1 X111.882 Y61.188 E2.2235
G1 X111.924 Y61.197 E2.2253
