; G-Code generated by Simplify3D(R) Version 4.0.1
; Jul 23, 2022 at 10:39:20 PM
; Settings Summary
;   processName,FriBox
;   applyToModels,FAS.v1.1.0.Print2
;   profileName,FriBox-Default (modified)
;   profileVersion,2018-12-20 11:03:27
;   baseProfile,Default
;   printMaterial,
;   printQuality,
;   printExtruders,
;   extruderName,Primary Extruder
;   extruderToolheadNumber,0
;   extruderDiameter,0.4
;   extruderAutoWidth,0
;   extruderWidth,0.4
;   extrusionMultiplier,1
;   extruderUseRetract,1
;   extruderRetractionDistance,1
;   extruderExtraRestartDistance,0
;   extruderRetractionZLift,0
;   extruderRetractionSpeed,1800
;   extruderUseCoasting,0
;   extruderCoastingDistance,0.2
;   extruderUseWipe,0
;   extruderWipeDistance,5
;   primaryExtruder,0
;   layerHeight,0.2
;   topSolidLayers,4
;   bottomSolidLayers,4
;   perimeterOutlines,2
;   printPerimetersInsideOut,1
;   startPointOption,2
;   startPointOriginX,0
;   startPointOriginY,0
;   sequentialIslands,0
;   spiralVaseMode,0
;   firstLayerHeightPercentage,100
;   firstLayerWidthPercentage,100
;   firstLayerUnderspeed,0.5
;   useRaft,0
;   raftExtruder,0
;   raftTopLayers,3
;   raftBaseLayers,1
;   raftOffset,2
;   raftSeparationDistance,0.1
;   raftTopInfill,100
;   aboveRaftSpeedMultiplier,0.5
;   useSkirt,1
;   skirtExtruder,0
;   skirtLayers,1
;   skirtOutlines,3
;   skirtOffset,2
;   usePrimePillar,0
;   primePillarExtruder,999
;   primePillarWidth,12
;   primePillarLocation,7
;   primePillarSpeedMultiplier,1
;   useOozeShield,0
;   oozeShieldExtruder,999
;   oozeShieldOffset,2
;   oozeShieldOutlines,1
;   oozeShieldSidewallShape,1
;   oozeShieldSidewallAngle,30
;   oozeShieldSpeedMultiplier,1
;   infillExtruder,0
;   internalInfillPattern,Rectilinear
;   externalInfillPattern,Rectilinear
;   infillPercentage,100
;   outlineOverlapPercentage,25
;   infillExtrusionWidthPercentage,120
;   minInfillLength,2
;   infillLayerInterval,1
;   internalInfillAngles,45,-45
;   overlapInternalInfillAngles,0
;   externalInfillAngles,45,-45
;   generateSupport,1
;   supportExtruder,0
;   supportInfillPercentage,30
;   supportExtraInflation,0
;   supportBaseLayers,0
;   denseSupportExtruder,0
;   denseSupportLayers,0
;   denseSupportInfillPercentage,100
;   supportLayerInterval,1
;   supportHorizontalPartOffset,0.4
;   supportUpperSeparationLayers,1
;   supportLowerSeparationLayers,1
;   supportType,0
;   supportGridSpacing,4
;   maxOverhangAngle,43
;   supportAngles,0
;   temperatureName,E0,Bed
;   temperatureNumber,0,1
;   temperatureSetpointCount,2,2
;   temperatureSetpointLayers,1,2,1,2
;   temperatureSetpointTemperatures,200,197,65,60
;   temperatureStabilizeAtStartup,1,1
;   temperatureHeatedBed,0,1
;   temperatureRelayBetweenLayers,0,0
;   temperatureRelayBetweenLoops,0,0
;   fanLayers,1,2
;   fanSpeeds,0,100
;   blipFanToFullPower,1
;   adjustSpeedForCooling,1
;   minSpeedLayerTime,15
;   minCoolingSpeedSlowdown,20
;   increaseFanForCooling,0
;   minFanLayerTime,45
;   maxCoolingFanSpeed,100
;   increaseFanForBridging,0
;   bridgingFanSpeed,100
;   use5D,1
;   relativeEdistances,0
;   allowEaxisZeroing,1
;   independentExtruderAxes,0
;   includeM10123,0
;   stickySupport,1
;   applyToolheadOffsets,0
;   gcodeXoffset,0
;   gcodeYoffset,0
;   gcodeZoffset,0
;   overrideMachineDefinition,1
;   machineTypeOverride,0
;   strokeXoverride,195
;   strokeYoverride,190
;   strokeZoverride,280
;   originOffsetXoverride,0
;   originOffsetYoverride,0
;   originOffsetZoverride,0
;   homeXdirOverride,-1
;   homeYdirOverride,-1
;   homeZdirOverride,-1
;   flipXoverride,1
;   flipYoverride,-1
;   flipZoverride,1
;   toolheadOffsets,0,0|0,0|0,0|0,0|0,0|0,0
;   overrideFirmwareConfiguration,0
;   firmwareTypeOverride,RepRap (Marlin/Repetier/Sprinter)
;   GPXconfigOverride,r2
;   baudRateOverride,115200
;   overridePrinterModels,0
;   printerModelsOverride
;   startingGcode,G21 ;metric values,G90 ;absolute positioning,M82 ;set extruder to absolute mode,M107 ;start with the fan off,G28 X0 Y0 ;move X/Y to min endstops,G28 Z0 ;move Z to min endstops,G1 Z15.0 F9000 ;move the platform down 15mm,G92 E0 ;zero the extruded length,G1 F200 E3 ;extrude 3mm of feed stock,G92 E0 ;zero the extruded length again,G1 F9000,M300 S3000 P800,M117 Printing...
;   layerChangeGcode,
;   retractionGcode,
;   toolChangeGcode,
;   endingGcode,M104 S0 ;extruder heater off,M140 S0 ;heated bed heater off (if you have it),G91 ;relative positioning,G1 E-1 F300  ;retract the filament a bit before lifting the nozzle, to release some of the pressure,G1 Z+0.5 E-5 X-20 Y-20 F9000 ;move Z up a bit and retract filament even more,G28 X0 Y0 ;move X/Y to min endstops, so the head is out of the way,M84 ;steppers off,G90 ;absolute positioning,M300 S4000 P700,M300 S2000 P700
;   exportFileFormat,gcode
;   celebration,0
;   celebrationSong,Random Song
;   postProcessing,
;   defaultSpeed,3000
;   outlineUnderspeed,0.45
;   solidInfillUnderspeed,0.6
;   supportUnderspeed,0.55
;   rapidXYspeed,3600
;   rapidZspeed,1002
;   minBridgingArea,50
;   bridgingExtraInflation,0
;   bridgingExtrusionMultiplier,1
;   bridgingSpeedMultiplier,1
;   useFixedBridgingAngle,0
;   fixedBridgingAngle,0
;   applyBridgingToPerimeters,0
;   filamentDiameters,1.75|1.75|1.75|1.75|1.75|1.75
;   filamentPricesPerKg,65|46|46|46|46|46
;   filamentDensities,1.25|1.25|1.25|1.25|1.25|1.25
;   useMinPrintHeight,0
;   minPrintHeight,0
;   useMaxPrintHeight,0
;   maxPrintHeight,0
;   useDiaphragm,1
;   diaphragmLayerInterval,30
;   robustSlicing,1
;   mergeAllIntoSolid,0
;   onlyRetractWhenCrossingOutline,1
;   retractBetweenLayers,1
;   useRetractionMinTravel,0
;   retractionMinTravel,3
;   retractWhileWiping,0
;   onlyWipeOutlines,1
;   avoidCrossingOutline,0
;   maxMovementDetourFactor,3
;   toolChangeRetractionDistance,12
;   toolChangeExtraRestartDistance,-0.5
;   toolChangeRetractionSpeed,600
;   externalThinWallType,0
;   internalThinWallType,2
;   thinWallAllowedOverlapPercentage,20
;   singleExtrusionMinLength,1
;   singleExtrusionMinPrintingWidthPercentage,50
;   singleExtrusionMaxPrintingWidthPercentage,200
;   singleExtrusionEndpointExtension,0.2
;   horizontalSizeCompensation,0
G90
M82
M106 S255
G4 P500
M106 S0
M140 S65
M190 S65
M104 S200 T0
M109 S200 T0
G21 ;metric values
G90 ;absolute positioning
M82 ;set extruder to absolute mode
M107 ;start with the fan off
G28 X0 Y0 ;move X/Y to min endstops
G28 Z0 ;move Z to min endstops
G1 Z15.0 F9000 ;move the platform down 15mm
G92 E0 ;zero the extruded length
G1 F200 E3 ;extrude 3mm of feed stock
G92 E0 ;zero the extruded length again
G1 F9000
M300 S3000 P800
M117 Printing...
G92 E0
G1 E-1.0000 F1800
G1 Z0.200 F1002
; process FriBox
; layer 1, Z = 0.200
T0
; tool H0.200 W0.400
; skirt
G1 X63.473 Y72.782 F3600
G1 E0.0000 F540
G92 E0
G1 X64.577 Y71.804 E0.0491 F1500
G1 X64.584 Y71.798 E0.0494
G1 X64.618 Y71.769 E0.0508
G1 X64.624 Y71.763 E0.0511
G1 X65.762 Y70.825 E0.1002
G1 X65.769 Y70.819 E0.1005
G1 X65.803 Y70.792 E0.1019
G1 X65.810 Y70.787 E0.1022
G1 X66.979 Y69.890 E0.1512
G1 X66.986 Y69.885 E0.1515
G1 X67.021 Y69.859 E0.1529
G1 X67.028 Y69.854 E0.1532
G1 X68.227 Y68.998 E0.2022
G1 X68.234 Y68.994 E0.2025
G1 X68.269 Y68.970 E0.2039
G1 X68.276 Y68.965 E0.2042
G1 X69.505 Y68.149 E0.2533
G1 X69.512 Y68.145 E0.2535
G1 X69.547 Y68.122 E0.2549
G1 X69.554 Y68.118 E0.2552
G1 X70.809 Y67.343 E0.3043
G1 X70.816 Y67.339 E0.3045
G1 X70.851 Y67.318 E0.3059
G1 X70.858 Y67.314 E0.3062
G1 X72.137 Y66.582 E0.3552
G1 X72.144 Y66.578 E0.3554
G1 X72.179 Y66.559 E0.3568
G1 X72.186 Y66.555 E0.3570
G1 X73.487 Y65.864 E0.4060
G1 X73.494 Y65.861 E0.4063
G1 X73.529 Y65.843 E0.4076
G1 X73.536 Y65.839 E0.4079
G1 X74.858 Y65.191 E0.4568
G1 X74.865 Y65.187 E0.4571
G1 X74.900 Y65.171 E0.4584
G1 X74.907 Y65.167 E0.4586
G1 X76.248 Y64.560 E0.5076
G1 X76.255 Y64.557 E0.5078
G1 X76.290 Y64.542 E0.5091
G1 X76.297 Y64.539 E0.5094
G1 X77.656 Y63.973 E0.5583
G1 X77.663 Y63.970 E0.5586
G1 X77.698 Y63.956 E0.5598
G1 X77.705 Y63.953 E0.5601
G1 X79.080 Y63.429 E0.6091
G1 X79.087 Y63.426 E0.6093
G1 X79.122 Y63.413 E0.6105
G1 X79.129 Y63.411 E0.6108
G1 X80.520 Y62.927 E0.6598
G1 X80.527 Y62.925 E0.6600
G1 X80.562 Y62.913 E0.6612
G1 X80.569 Y62.911 E0.6615
G1 X81.974 Y62.468 E0.7105
G1 X81.981 Y62.466 E0.7107
G1 X82.016 Y62.456 E0.7119
G1 X82.023 Y62.454 E0.7122
G1 X83.440 Y62.052 E0.7611
G1 X83.447 Y62.050 E0.7614
G1 X83.482 Y62.041 E0.7626
G1 X83.489 Y62.039 E0.7628
G1 X84.916 Y61.679 E0.8118
G1 X84.923 Y61.677 E0.8120
G1 X84.958 Y61.669 E0.8132
G1 X84.965 Y61.667 E0.8135
G1 X86.402 Y61.348 E0.8624
G1 X86.409 Y61.347 E0.8627
G1 X86.444 Y61.340 E0.8638
G1 X86.451 Y61.338 E0.8641
G1 X87.896 Y61.060 E0.9130
G1 X87.902 Y61.059 E0.9132
G1 X87.937 Y61.053 E0.9144
G1 X87.944 Y61.052 E0.9147
G1 X89.396 Y60.814 E0.9636
G1 X89.403 Y60.813 E0.9638
G1 X89.438 Y60.808 E0.9650
G1 X89.445 Y60.807 E0.9652
G1 X90.912 Y60.609 E1.0145
G1 X90.922 Y60.608 E1.0148
G1 X90.973 Y60.602 E1.0165
G1 X90.983 Y60.601 E1.0169
G1 X93.832 Y60.336 E1.1120
G1 X93.842 Y60.336 E1.1123
G1 X93.894 Y60.332 E1.1141
G1 X93.904 Y60.331 E1.1144
G1 X95.448 Y60.252 E1.1658
G1 X95.455 Y60.252 E1.1661
G1 X95.491 Y60.250 E1.1673
G1 X95.498 Y60.250 E1.1675
G1 X96.969 Y60.216 E1.2164
G1 X96.976 Y60.216 E1.2167
G1 X97.011 Y60.216 E1.2178
G1 X97.018 Y60.216 E1.2181
G1 X98.498 Y60.223 E1.2673
G1 X98.508 Y60.223 E1.2676
G1 X98.560 Y60.224 E1.2694
G1 X98.571 Y60.224 E1.2697
G1 X101.502 Y60.359 E1.3673
G1 X101.516 Y60.360 E1.3678
G1 X101.584 Y60.365 E1.3701
G1 X101.598 Y60.367 E1.3705
G1 X104.521 Y60.663 E1.4682
G1 X104.533 Y60.664 E1.4686
G1 X104.593 Y60.672 E1.4706
G1 X104.605 Y60.673 E1.4711
G1 X106.683 Y60.986 E1.5409
G1 X106.692 Y60.987 E1.5413
G1 X106.739 Y60.995 E1.5428
G1 X106.748 Y60.997 E1.5431
G1 X108.523 Y61.333 E1.6032
G1 X108.530 Y61.334 E1.6035
G1 X108.567 Y61.342 E1.6047
G1 X108.574 Y61.343 E1.6050
G1 X109.874 Y61.630 E1.6492
G1 X109.883 Y61.632 E1.6495
G1 X109.928 Y61.643 E1.6511
G1 X109.937 Y61.645 E1.6514
G1 X112.346 Y62.270 E1.7342
G1 X112.355 Y62.272 E1.7345
G1 X112.400 Y62.285 E1.7360
G1 X112.409 Y62.287 E1.7363
G1 X113.624 Y62.651 E1.7785
G1 X113.633 Y62.654 E1.7788
G1 X113.677 Y62.668 E1.7804
G1 X113.686 Y62.671 E1.7807
G1 X116.052 Y63.477 E1.8638
G1 X116.064 Y63.481 E1.8642
G1 X116.123 Y63.503 E1.8663
G1 X116.135 Y63.508 E1.8668
G1 X118.462 Y64.435 E1.9501
G1 X118.474 Y64.440 E1.9505
G1 X118.534 Y64.466 E1.9527
G1 X118.545 Y64.471 E1.9531
G1 X120.821 Y65.518 E2.0364
G1 X120.833 Y65.524 E2.0369
G1 X120.893 Y65.553 E2.0391
G1 X120.905 Y65.559 E2.0395
G1 X123.113 Y66.722 E2.1225
G1 X123.122 Y66.727 E2.1229
G1 X123.167 Y66.751 E2.1246
G1 X123.176 Y66.756 E2.1249
G1 X124.275 Y67.394 E2.1672
G1 X124.284 Y67.399 E2.1675
G1 X124.329 Y67.426 E2.1692
G1 X124.338 Y67.432 E2.1696
G1 X126.445 Y68.775 E2.2527
G1 X126.457 Y68.783 E2.2532
G1 X126.517 Y68.823 E2.2556
G1 X126.529 Y68.831 E2.2561
G1 X128.562 Y70.297 E2.3394
G1 X128.574 Y70.306 E2.3399
G1 X128.633 Y70.351 E2.3424
G1 X128.644 Y70.361 E2.3429
G1 X130.587 Y71.944 E2.4263
G1 X130.599 Y71.954 E2.4268
G1 X130.657 Y72.005 E2.4293
G1 X130.669 Y72.016 E2.4299
G1 X132.555 Y73.759 E2.5153
G1 X132.566 Y73.770 E2.5158
G1 X132.623 Y73.825 E2.5184
G1 X132.634 Y73.837 E2.5190
G1 X134.316 Y75.603 E2.6001
G1 X134.325 Y75.612 E2.6005
G1 X134.365 Y75.656 E2.6025
G1 X134.373 Y75.665 E2.6029
G1 X135.200 Y76.622 E2.6450
G1 X135.205 Y76.628 E2.6452
G1 X135.233 Y76.661 E2.6467
G1 X135.238 Y76.667 E2.6469
G1 X136.069 Y77.697 E2.6909
G1 X136.074 Y77.704 E2.6912
G1 X136.100 Y77.737 E2.6927
G1 X136.106 Y77.744 E2.6929
G1 X136.858 Y78.745 E2.7346
G1 X136.863 Y78.752 E2.7349
G1 X136.889 Y78.788 E2.7363
G1 X136.894 Y78.795 E2.7366
G1 X137.653 Y79.884 E2.7808
G1 X137.686 Y79.937 E2.7829
G1 X137.831 Y80.214 E2.7932
G1 X137.857 Y80.270 E2.7953
G1 X138.086 Y80.880 E2.8170
G1 X138.112 Y80.979 E2.8204
G1 X138.191 Y81.486 E2.8374
G1 X138.196 Y81.588 E2.8409
G1 X138.162 Y82.281 E2.8639
G1 X138.162 Y82.290 E2.8642
G1 X138.158 Y82.335 E2.8657
G1 X138.158 Y82.344 E2.8660
G1 X134.872 Y120.409 E4.1368
G1 X134.858 Y120.492 E4.1396
G1 X134.752 Y120.899 E4.1536
G1 X134.725 Y120.978 E4.1563
G1 X134.414 Y121.670 E4.1816
G1 X134.372 Y121.747 E4.1845
G1 X134.127 Y122.108 E4.1990
G1 X134.072 Y122.175 E4.2019
G1 X132.541 Y123.755 E4.2751
G1 X132.534 Y123.762 E4.2754
G1 X132.498 Y123.798 E4.2771
G1 X132.491 Y123.805 E4.2774
G1 X131.685 Y124.571 E4.3144
G1 X131.678 Y124.578 E4.3147
G1 X131.643 Y124.610 E4.3163
G1 X131.636 Y124.617 E4.3166
G1 X130.084 Y125.983 E4.3854
G1 X130.074 Y125.991 E4.3858
G1 X130.026 Y126.032 E4.3879
G1 X130.016 Y126.040 E4.3883
G1 X128.397 Y127.327 E4.4571
G1 X128.390 Y127.333 E4.4574
G1 X128.353 Y127.361 E4.4590
G1 X128.346 Y127.367 E4.4593
G1 X127.452 Y128.025 E4.4962
G1 X127.444 Y128.031 E4.4965
G1 X127.407 Y128.057 E4.4981
G1 X127.399 Y128.062 E4.4984
G1 X125.599 Y129.289 E4.5708
G1 X125.532 Y129.327 E4.5734
G1 X125.181 Y129.494 E4.5863
G1 X125.108 Y129.522 E4.5889
G1 X124.457 Y129.714 E4.6115
G1 X124.387 Y129.729 E4.6139
G1 X124.031 Y129.781 E4.6258
G1 X123.959 Y129.786 E4.6282
G1 X71.224 Y129.787 E6.3822
G1 X71.192 Y129.786 E6.3833
G1 X71.030 Y129.776 E6.3887
G1 X70.998 Y129.773 E6.3897
G1 X70.551 Y129.714 E6.4047
G1 X70.494 Y129.703 E6.4067
G1 X70.211 Y129.632 E6.4164
G1 X70.156 Y129.615 E6.4183
G1 X69.724 Y129.451 E6.4337
G1 X69.669 Y129.427 E6.4357
G1 X69.401 Y129.286 E6.4457
G1 X69.350 Y129.255 E6.4477
G1 X67.185 Y127.761 E6.5352
G1 X67.176 Y127.755 E6.5356
G1 X67.130 Y127.721 E6.5375
G1 X67.121 Y127.715 E6.5378
G1 X66.016 Y126.875 E6.5840
G1 X66.006 Y126.868 E6.5844
G1 X65.960 Y126.831 E6.5863
G1 X65.951 Y126.824 E6.5867
G1 X63.975 Y125.171 E6.6724
G1 X63.966 Y125.163 E6.6728
G1 X63.921 Y125.123 E6.6748
G1 X63.912 Y125.115 E6.6752
G1 X62.895 Y124.177 E6.7213
G1 X62.887 Y124.170 E6.7216
G1 X62.851 Y124.135 E6.7233
G1 X62.844 Y124.128 E6.7236
G1 X61.526 Y122.810 E6.7856
G1 X61.520 Y122.804 E6.7859
G1 X61.489 Y122.772 E6.7874
G1 X61.482 Y122.765 E6.7877
G1 X60.891 Y122.130 E6.8165
G1 X60.838 Y122.062 E6.8194
G1 X60.601 Y121.698 E6.8338
G1 X60.560 Y121.622 E6.8367
G1 X60.262 Y120.922 E6.8620
G1 X60.236 Y120.847 E6.8647
G1 X60.140 Y120.461 E6.8779
G1 X60.127 Y120.383 E6.8805
G1 X56.817 Y82.019 E8.1613
G1 X56.816 Y81.996 E8.1620
G1 X56.811 Y81.881 E8.1658
G1 X56.811 Y81.858 E8.1666
G1 X56.813 Y81.455 E8.1800
G1 X56.822 Y81.366 E8.1830
G1 X56.904 Y80.926 E8.1979
G1 X56.928 Y80.840 E8.2009
G1 X57.148 Y80.261 E8.2215
G1 X57.174 Y80.204 E8.2235
G1 X57.321 Y79.927 E8.2339
G1 X57.353 Y79.874 E8.2360
G1 X58.278 Y78.559 E8.2895
G1 X58.284 Y78.551 E8.2898
G1 X58.316 Y78.508 E8.2916
G1 X58.322 Y78.500 E8.2919
G1 X59.221 Y77.330 E8.3410
G1 X59.227 Y77.322 E8.3414
G1 X59.257 Y77.284 E8.3430
G1 X59.264 Y77.277 E8.3433
G1 X60.207 Y76.143 E8.3924
G1 X60.214 Y76.135 E8.3927
G1 X60.246 Y76.098 E8.3943
G1 X60.252 Y76.091 E8.3946
G1 X61.239 Y74.995 E8.4437
G1 X61.246 Y74.988 E8.4440
G1 X61.279 Y74.953 E8.4456
G1 X61.285 Y74.946 E8.4459
G1 X62.313 Y73.889 E8.4949
G1 X62.319 Y73.883 E8.4953
G1 X62.353 Y73.850 E8.4968
G1 X62.359 Y73.843 E8.4971
G1 X63.426 Y72.825 E8.5462
G1 X63.433 Y72.819 E8.5465
G1 X63.466 Y72.788 E8.5480
G1 X63.473 Y72.782 E8.5483
G1 X63.740 Y73.080 F3600
G92 E0
G1 X64.841 Y72.104 E0.0489 F1500
G1 X64.845 Y72.101 E0.0491
G1 X64.876 Y72.074 E0.0505
G1 X64.880 Y72.070 E0.0507
G1 X66.015 Y71.135 E0.0996
G1 X66.019 Y71.131 E0.0998
G1 X66.051 Y71.106 E0.1011
G1 X66.055 Y71.103 E0.1013
G1 X67.221 Y70.209 E0.1502
G1 X67.226 Y70.205 E0.1503
G1 X67.257 Y70.182 E0.1517
G1 X67.262 Y70.179 E0.1518
G1 X68.458 Y69.325 E0.2007
G1 X68.462 Y69.322 E0.2009
G1 X68.494 Y69.300 E0.2022
G1 X68.499 Y69.297 E0.2024
G1 X69.724 Y68.483 E0.2513
G1 X69.729 Y68.481 E0.2515
G1 X69.761 Y68.460 E0.2527
G1 X69.765 Y68.457 E0.2529
G1 X71.018 Y67.685 E0.3018
G1 X71.022 Y67.682 E0.3020
G1 X71.054 Y67.663 E0.3033
G1 X71.058 Y67.661 E0.3034
G1 X72.334 Y66.930 E0.3523
G1 X72.338 Y66.928 E0.3525
G1 X72.371 Y66.910 E0.3537
G1 X72.375 Y66.907 E0.3539
G1 X73.673 Y66.218 E0.4028
G1 X73.678 Y66.216 E0.4029
G1 X73.710 Y66.200 E0.4041
G1 X73.714 Y66.198 E0.4043
