; G-Code generated by Simplify3D(R) Version 4.0.1
; Jul 24, 2022 at 6:55:54 AM
; Settings Summary
;   processName,FriBox
;   applyToModels,FAS.v1.1.0.Print1
;   profileName,FriBox-Default (modified)
;   profileVersion,2018-12-20 11:03:27
;   baseProfile,Default
;   printMaterial,
;   printQuality,
;   printExtruders,
;   extruderName,Primary Extruder
;   extruderToolheadNumber,0
;   extruderDiameter,0.4
;   extruderAutoWidth,0
;   extruderWidth,0.4
;   extrusionMultiplier,1
;   extruderUseRetract,1
;   extruderRetractionDistance,1
;   extruderExtraRestartDistance,0
;   extruderRetractionZLift,0
;   extruderRetractionSpeed,1800
;   extruderUseCoasting,0
;   extruderCoastingDistance,0.2
;   extruderUseWipe,0
;   extruderWipeDistance,5
;   primaryExtruder,0
;   layerHeight,0.2
;   topSolidLayers,4
;   bottomSolidLayers,4
;   perimeterOutlines,2
;   printPerimetersInsideOut,1
;   startPointOption,2
;   startPointOriginX,0
;   startPointOriginY,0
;   sequentialIslands,0
;   spiralVaseMode,0
;   firstLayerHeightPercentage,100
;   firstLayerWidthPercentage,100
;   firstLayerUnderspeed,0.5
;   useRaft,0
;   raftExtruder,0
;   raftTopLayers,3
;   raftBaseLayers,1
;   raftOffset,2
;   raftSeparationDistance,0.1
;   raftTopInfill,100
;   aboveRaftSpeedMultiplier,0.5
;   useSkirt,1
;   skirtExtruder,0
;   skirtLayers,1
;   skirtOutlines,3
;   skirtOffset,2
;   usePrimePillar,0
;   primePillarExtruder,999
;   primePillarWidth,12
;   primePillarLocation,7
;   primePillarSpeedMultiplier,1
;   useOozeShield,0
;   oozeShieldExtruder,999
;   oozeShieldOffset,2
;   oozeShieldOutlines,1
;   oozeShieldSidewallShape,1
;   oozeShieldSidewallAngle,30
;   oozeShieldSpeedMultiplier,1
;   infillExtruder,0
;   internalInfillPattern,Rectilinear
;   externalInfillPattern,Rectilinear
;   infillPercentage,100
;   outlineOverlapPercentage,25
;   infillExtrusionWidthPercentage,120
;   minInfillLength,2
;   infillLayerInterval,1
;   internalInfillAngles,45,-45
;   overlapInternalInfillAngles,0
;   externalInfillAngles,45,-45
;   generateSupport,0
;   supportExtruder,0
;   supportInfillPercentage,30
;   supportExtraInflation,0
;   supportBaseLayers,0
;   denseSupportExtruder,0
;   denseSupportLayers,0
;   denseSupportInfillPercentage,100
;   supportLayerInterval,1
;   supportHorizontalPartOffset,0.4
;   supportUpperSeparationLayers,1
;   supportLowerSeparationLayers,1
;   supportType,0
;   supportGridSpacing,4
;   maxOverhangAngle,43
;   supportAngles,0
;   temperatureName,E0,Bed
;   temperatureNumber,0,1
;   temperatureSetpointCount,2,2
;   temperatureSetpointLayers,1,2,1,2
;   temperatureSetpointTemperatures,200,197,65,60
;   temperatureStabilizeAtStartup,1,1
;   temperatureHeatedBed,0,1
;   temperatureRelayBetweenLayers,0,0
;   temperatureRelayBetweenLoops,0,0
;   fanLayers,1,2
;   fanSpeeds,0,100
;   blipFanToFullPower,1
;   adjustSpeedForCooling,1
;   minSpeedLayerTime,15
;   minCoolingSpeedSlowdown,20
;   increaseFanForCooling,0
;   minFanLayerTime,45
;   maxCoolingFanSpeed,100
;   increaseFanForBridging,0
;   bridgingFanSpeed,100
;   use5D,1
;   relativeEdistances,0
;   allowEaxisZeroing,1
;   independentExtruderAxes,0
;   includeM10123,0
;   stickySupport,1
;   applyToolheadOffsets,0
;   gcodeXoffset,0
;   gcodeYoffset,0
;   gcodeZoffset,0
;   overrideMachineDefinition,1
;   machineTypeOverride,0
;   strokeXoverride,195
;   strokeYoverride,190
;   strokeZoverride,280
;   originOffsetXoverride,0
;   originOffsetYoverride,0
;   originOffsetZoverride,0
;   homeXdirOverride,-1
;   homeYdirOverride,-1
;   homeZdirOverride,-1
;   flipXoverride,1
;   flipYoverride,-1
;   flipZoverride,1
;   toolheadOffsets,0,0|0,0|0,0|0,0|0,0|0,0
;   overrideFirmwareConfiguration,0
;   firmwareTypeOverride,RepRap (Marlin/Repetier/Sprinter)
;   GPXconfigOverride,r2
;   baudRateOverride,115200
;   overridePrinterModels,0
;   printerModelsOverride
;   startingGcode,G21 ;metric values,G90 ;absolute positioning,M82 ;set extruder to absolute mode,M107 ;start with the fan off,G28 X0 Y0 ;move X/Y to min endstops,G28 Z0 ;move Z to min endstops,G1 Z15.0 F9000 ;move the platform down 15mm,G92 E0 ;zero the extruded length,G1 F200 E3 ;extrude 3mm of feed stock,G92 E0 ;zero the extruded length again,G1 F9000,M300 S3000 P800,M117 Printing...
;   layerChangeGcode,
;   retractionGcode,
;   toolChangeGcode,
;   endingGcode,M104 S0 ;extruder heater off,M140 S0 ;heated bed heater off (if you have it),G91 ;relative positioning,G1 E-1 F300  ;retract the filament a bit before lifting the nozzle, to release some of the pressure,G1 Z+0.5 E-5 X-20 Y-20 F9000 ;move Z up a bit and retract filament even more,G28 X0 Y0 ;move X/Y to min endstops, so the head is out of the way,M84 ;steppers off,G90 ;absolute positioning,M300 S4000 P700,M300 S2000 P700
;   exportFileFormat,gcode
;   celebration,0
;   celebrationSong,Random Song
;   postProcessing,
;   defaultSpeed,3000
;   outlineUnderspeed,0.45
;   solidInfillUnderspeed,0.6
;   supportUnderspeed,0.55
;   rapidXYspeed,3600
;   rapidZspeed,1002
;   minBridgingArea,50
;   bridgingExtraInflation,0
;   bridgingExtrusionMultiplier,1
;   bridgingSpeedMultiplier,1
;   useFixedBridgingAngle,0
;   fixedBridgingAngle,0
;   applyBridgingToPerimeters,0
;   filamentDiameters,1.75|1.75|1.75|1.75|1.75|1.75
;   filamentPricesPerKg,65|46|46|46|46|46
;   filamentDensities,1.25|1.25|1.25|1.25|1.25|1.25
;   useMinPrintHeight,0
;   minPrintHeight,0
;   useMaxPrintHeight,0
;   maxPrintHeight,0
;   useDiaphragm,1
;   diaphragmLayerInterval,30
;   robustSlicing,1
;   mergeAllIntoSolid,0
;   onlyRetractWhenCrossingOutline,1
;   retractBetweenLayers,1
;   useRetractionMinTravel,0
;   retractionMinTravel,3
;   retractWhileWiping,0
;   onlyWipeOutlines,1
;   avoidCrossingOutline,0
;   maxMovementDetourFactor,3
;   toolChangeRetractionDistance,12
;   toolChangeExtraRestartDistance,-0.5
;   toolChangeRetractionSpeed,600
;   externalThinWallType,0
;   internalThinWallType,2
;   thinWallAllowedOverlapPercentage,20
;   singleExtrusionMinLength,1
;   singleExtrusionMinPrintingWidthPercentage,50
;   singleExtrusionMaxPrintingWidthPercentage,200
;   singleExtrusionEndpointExtension,0.2
;   horizontalSizeCompensation,0
G90
M82
M106 S255
G4 P500
M106 S0
M140 S65
M190 S65
M104 S200 T0
M109 S200 T0
G21 ;metric values
G90 ;absolute positioning
M82 ;set extruder to absolute mode
M107 ;start with the fan off
G28 X0 Y0 ;move X/Y to min endstops
G28 Z0 ;move Z to min endstops
G1 Z15.0 F9000 ;move the platform down 15mm
G92 E0 ;zero the extruded length
G1 F200 E3 ;extrude 3mm of feed stock
G92 E0 ;zero the extruded length again
G1 F9000
M300 S3000 P800
M117 Printing...
G92 E0
G1 E-1.0000 F1800
G1 Z0.200 F1002
; process FriBox
; layer 1, Z = 0.200
T0
; tool H0.200 W0.400
; skirt
G1 X26.886 Y39.113 F3600
G1 E0.0000 F540
G92 E0
G1 X27.046 Y39.006 E0.0064 F1500
G1 X27.939 Y38.626 E0.0387
G1 X28.127 Y38.586 E0.0451
G1 X28.967 Y38.572 E0.0730
G1 X28.972 Y38.572 E0.0732
G1 X28.994 Y38.572 E0.0739
G1 X28.998 Y38.572 E0.0740
G1 X84.683 Y38.578 E1.9261
G1 X84.876 Y38.616 E1.9327
G1 X85.793 Y38.996 E1.9657
G1 X85.956 Y39.105 E1.9722
G1 X89.320 Y42.469 E2.1304
G1 X89.429 Y42.633 E2.1370
G1 X89.809 Y43.550 E2.1700
G1 X89.848 Y43.743 E2.1766
G1 X89.848 Y146.257 E5.5862
G1 X89.809 Y146.450 E5.5927
G1 X89.429 Y147.367 E5.6258
G1 X89.320 Y147.531 E5.6323
G1 X85.956 Y150.895 E5.7905
G1 X85.793 Y151.004 E5.7971
G1 X84.876 Y151.384 E5.8301
G1 X84.682 Y151.422 E5.8366
G1 X28.168 Y151.422 E7.7163
G1 X27.975 Y151.384 E7.7229
G1 X27.058 Y151.004 E7.7559
G1 X26.894 Y150.895 E7.7624
G1 X23.531 Y147.531 E7.9206
G1 X23.421 Y147.367 E7.9272
G1 X23.041 Y146.450 E7.9602
G1 X23.003 Y146.257 E7.9668
G1 X23.003 Y43.743 E11.3764
G1 X23.041 Y43.550 E11.3830
G1 X23.421 Y42.633 E11.4160
G1 X23.531 Y42.469 E11.4225
G1 X26.886 Y39.113 E11.5804
G92 E0
G1 E-1.0000 F1800
G1 X92.117 Y46.848 F3600
G1 E0.0000 F1800
G92 E0
G1 X92.190 Y46.277 E0.0191 F1500
G1 X92.203 Y46.213 E0.0213
G1 X92.286 Y45.899 E0.0321
G1 X92.307 Y45.837 E0.0343
G1 X92.570 Y45.195 E0.0574
G1 X92.600 Y45.134 E0.0596
G1 X92.769 Y44.841 E0.0709
G1 X92.807 Y44.784 E0.0731
G1 X93.238 Y44.228 E0.0966
G1 X93.284 Y44.177 E0.0989
G1 X93.529 Y43.937 E0.1103
G1 X93.581 Y43.892 E0.1125
G1 X94.155 Y43.467 E0.1363
G1 X94.211 Y43.431 E0.1385
G1 X94.503 Y43.269 E0.1496
G1 X94.563 Y43.241 E0.1518
G1 X95.208 Y42.990 E0.1748
G1 X95.268 Y42.971 E0.1769
G1 X95.571 Y42.894 E0.1873
G1 X95.632 Y42.883 E0.1894
G1 X96.203 Y42.813 E0.2085
G1 X96.233 Y42.810 E0.2095
G1 X96.386 Y42.801 E0.2146
G1 X96.416 Y42.800 E0.2156
G1 X150.255 Y42.800 E2.0063
G1 X150.272 Y42.800 E2.0069
G1 X150.357 Y42.803 E2.0097
G1 X150.374 Y42.804 E2.0103
G1 X150.731 Y42.828 E2.0222
G1 X150.778 Y42.834 E2.0238
G1 X151.014 Y42.873 E2.0317
G1 X151.060 Y42.883 E2.0333
G1 X151.621 Y43.032 E2.0526
G1 X151.664 Y43.045 E2.0541
G1 X151.881 Y43.125 E2.0618
G1 X151.923 Y43.143 E2.0633
G1 X152.258 Y43.301 E2.0756
G1 X152.287 Y43.316 E2.0767
G1 X152.430 Y43.396 E2.0821
G1 X152.458 Y43.413 E2.0832
G1 X152.798 Y43.633 E2.0967
G1 X152.838 Y43.662 E2.0983
G1 X153.032 Y43.816 E2.1066
G1 X153.069 Y43.849 E2.1082
G1 X153.522 Y44.291 E2.1293
G1 X153.566 Y44.339 E2.1315
G1 X153.770 Y44.598 E2.1424
G1 X153.807 Y44.653 E2.1446
G1 X154.163 Y45.253 E2.1678
G1 X154.193 Y45.312 E2.1700
G1 X154.323 Y45.616 E2.1810
G1 X154.345 Y45.678 E2.1832
G1 X154.512 Y46.280 E2.2040
G1 X154.523 Y46.328 E2.2056
G1 X154.565 Y46.571 E2.2138
G1 X154.571 Y46.620 E2.2155
G1 X154.597 Y46.979 E2.2274
G1 X154.598 Y46.997 E2.2280
G1 X154.602 Y47.089 E2.2311
G1 X154.602 Y47.107 E2.2317
G1 X154.602 Y147.027 E5.5551
G1 X154.601 Y147.059 E5.5561
G1 X154.591 Y147.220 E5.5615
G1 X154.588 Y147.252 E5.5626
G1 X154.514 Y147.823 E5.5817
G1 X154.501 Y147.887 E5.5839
G1 X154.418 Y148.201 E5.5947
G1 X154.397 Y148.263 E5.5968
G1 X154.134 Y148.905 E5.6199
G1 X154.104 Y148.966 E5.6222
G1 X153.935 Y149.259 E5.6335
G1 X153.897 Y149.316 E5.6357
G1 X153.466 Y149.872 E5.6591
G1 X153.420 Y149.923 E5.6614
G1 X153.175 Y150.163 E5.6728
G1 X153.123 Y150.208 E5.6751
G1 X152.549 Y150.633 E5.6989
G1 X152.493 Y150.669 E5.7011
G1 X152.201 Y150.831 E5.7122
G1 X152.141 Y150.859 E5.7144
G1 X151.496 Y151.110 E5.7374
G1 X151.436 Y151.129 E5.7395
G1 X151.133 Y151.206 E5.7499
G1 X151.072 Y151.217 E5.7519
G1 X150.501 Y151.287 E5.7711
G1 X150.471 Y151.290 E5.7721
G1 X150.318 Y151.299 E5.7772
G1 X150.288 Y151.300 E5.7782
G1 X96.450 Y151.300 E7.5689
G1 X96.433 Y151.300 E7.5694
G1 X96.347 Y151.297 E7.5723
G1 X96.330 Y151.296 E7.5728
G1 X95.974 Y151.272 E7.5847
G1 X95.926 Y151.266 E7.5863
G1 X95.690 Y151.227 E7.5943
G1 X95.644 Y151.217 E7.5958
G1 X95.084 Y151.068 E7.6151
G1 X95.040 Y151.055 E7.6166
G1 X94.823 Y150.975 E7.6243
G1 X94.781 Y150.958 E7.6258
G1 X94.410 Y150.781 E7.6395
G1 X94.367 Y150.758 E7.6411
G1 X94.158 Y150.633 E7.6492
G1 X94.118 Y150.606 E7.6508
G1 X93.585 Y150.211 E7.6729
G1 X93.535 Y150.168 E7.6751
G1 X93.297 Y149.938 E7.6861
G1 X93.253 Y149.889 E7.6883
G1 X92.866 Y149.398 E7.7091
G1 X92.837 Y149.358 E7.7107
G1 X92.705 Y149.153 E7.7188
G1 X92.681 Y149.110 E7.7205
G1 X92.478 Y148.714 E7.7353
G1 X92.457 Y148.668 E7.7370
G1 X92.365 Y148.432 E7.7454
G1 X92.349 Y148.384 E7.7471
G1 X92.192 Y147.820 E7.7665
G1 X92.182 Y147.772 E7.7682
G1 X92.139 Y147.529 E7.7764
G1 X92.133 Y147.480 E7.7780
G1 X92.107 Y147.121 E7.7900
G1 X92.106 Y147.103 E7.7906
G1 X92.102 Y147.011 E7.7936
G1 X92.102 Y146.993 E7.7943
G1 X92.102 Y47.073 E11.1176
G1 X92.103 Y47.041 E11.1187
G1 X92.113 Y46.880 E11.1240
G1 X92.117 Y46.848 E11.1251
G92 E0
G1 E-1.0000 F1800
G1 X156.227 Y94.416 F3600
G1 E0.0000 F1800
G92 E0
G1 X157.680 Y92.963 E0.0683 F1500
G1 X158.047 Y92.811 E0.0816
G1 X169.102 Y92.811 E0.4493
G1 X169.470 Y92.963 E0.4625
G1 X170.922 Y94.416 E0.5308
G1 X171.075 Y94.784 E0.5441
G1 X171.075 Y120.339 E1.3940
G1 X170.922 Y120.706 E1.4072
G1 X169.958 Y121.671 E1.4526
G1 X170.516 Y121.876 E1.4724
G1 X170.595 Y121.913 E1.4753
G1 X170.971 Y122.131 E1.4898
G1 X171.042 Y122.181 E1.4926
G1 X171.489 Y122.558 E1.5121
G1 X171.542 Y122.610 E1.5146
G1 X171.788 Y122.887 E1.5269
G1 X171.832 Y122.946 E1.5293
G1 X172.151 Y123.438 E1.5488
G1 X172.193 Y123.516 E1.5518
G1 X172.364 Y123.922 E1.5664
G1 X172.391 Y124.005 E1.5693
G1 X172.530 Y124.619 E1.5903
G1 X172.540 Y124.674 E1.5921
G1 X172.571 Y124.952 E1.6014
G1 X172.574 Y125.008 E1.6033
G1 X172.575 Y148.437 E2.3825
G1 X172.573 Y148.475 E2.3838
G1 X172.558 Y148.668 E2.3902
G1 X172.554 Y148.706 E2.3915
G1 X172.481 Y149.174 E2.4073
G1 X172.465 Y149.242 E2.4096
G1 X172.363 Y149.579 E2.4213
G1 X172.338 Y149.644 E2.4236
G1 X172.121 Y150.111 E2.4408
G1 X172.087 Y150.172 E2.4431
G1 X171.898 Y150.464 E2.4547
G1 X171.856 Y150.520 E2.4570
G1 X171.495 Y150.937 E2.4753
G1 X171.440 Y150.992 E2.4779
G1 X171.144 Y151.242 E2.4908
G1 X171.081 Y151.288 E2.4934
G1 X170.576 Y151.595 E2.5131
G1 X170.503 Y151.632 E2.5158
G1 X170.126 Y151.784 E2.5293
G1 X170.048 Y151.809 E2.5320
G1 X169.536 Y151.924 E2.5495
G1 X169.481 Y151.934 E2.5513
G1 X169.205 Y151.964 E2.5606
G1 X169.150 Y151.967 E2.5624
G1 X159.566 Y151.969 E2.8812
G1 X159.522 Y151.967 E2.8826
G1 X159.304 Y151.948 E2.8899
G1 X159.260 Y151.942 E2.8914
G1 X158.756 Y151.853 E2.9084
G1 X158.677 Y151.832 E2.9111
G1 X158.295 Y151.698 E2.9246
G1 X158.220 Y151.665 E2.9273
G1 X157.722 Y151.394 E2.9462
G1 X157.659 Y151.353 E2.9487
G1 X157.360 Y151.126 E2.9612
G1 X157.304 Y151.076 E2.9636
G1 X156.908 Y150.669 E2.9825
G1 X156.858 Y150.608 E2.9852
G1 X156.631 Y150.287 E2.9983
G1 X156.590 Y150.219 E3.0009
G1 X156.328 Y149.685 E3.0206
G1 X156.300 Y149.615 E3.0232
G1 X156.186 Y149.255 E3.0357
G1 X156.168 Y149.181 E3.0383
G1 X156.096 Y148.720 E3.0538
G1 X156.092 Y148.681 E3.0551
G1 X156.077 Y148.488 E3.0615
G1 X156.075 Y148.449 E3.0628
G1 X156.075 Y125.022 E3.8420
G1 X156.078 Y124.967 E3.8438
G1 X156.108 Y124.693 E3.8530
G1 X156.117 Y124.639 E3.8548
G1 X156.274 Y123.938 E3.8787
G1 X156.313 Y123.827 E3.8826
G1 X156.573 Y123.297 E3.9023
G1 X156.636 Y123.198 E3.9062
G1 X157.169 Y122.553 E3.9340
G1 X157.234 Y122.488 E3.9371
G1 X157.590 Y122.191 E3.9525
G1 X157.662 Y122.141 E3.9554
G1 X156.227 Y120.706 E4.0229
G1 X156.075 Y120.339 E4.0361
G1 X156.075 Y94.784 E4.8861
G1 X156.227 Y94.416 E4.8993
G1 X156.566 Y94.643 F3600
G92 E0
G1 X157.906 Y93.303 E0.0630 F1500
G1 X158.127 Y93.211 E0.0710
G1 X169.023 Y93.211 E0.4334
G1 X169.243 Y93.303 E0.4413
G1 X170.583 Y94.643 E0.5044
G1 X170.675 Y94.863 E0.5123
G1 X170.675 Y120.259 E1.3570
G1 X170.583 Y120.479 E1.3649
G1 X169.243 Y121.820 E1.4279
G1 X169.023 Y121.911 E1.4359
G1 X158.127 Y121.911 E1.7983
G1 X157.906 Y121.820 E1.8062
G1 X156.566 Y120.479 E1.8693
G1 X156.475 Y120.259 E1.8772
G1 X156.475 Y94.863 E2.7219
G1 X156.566 Y94.643 E2.7298
G92 E0
G1 E-1.0000 F1800
G1 X159.471 Y121.935 F3600
G1 E0.0000 F1800
G92 E0
G1 X159.506 Y121.933 E0.0011 F1500
G1 X169.073 Y121.933 E0.3194
G1 X169.089 Y121.933 E0.3199
G1 X169.214 Y121.940 E0.3241
G1 X169.230 Y121.941 E0.3246
G1 X169.485 Y121.969 E0.3331
G1 X169.521 Y121.975 E0.3343
G1 X169.795 Y122.039 E0.3437
G1 X169.830 Y122.050 E0.3449
G1 X170.362 Y122.246 E0.3638
G1 X170.409 Y122.268 E0.3655
G1 X170.755 Y122.469 E0.3788
G1 X170.798 Y122.499 E0.3805
G1 X171.221 Y122.854 E0.3989
G1 X171.252 Y122.885 E0.4004
G1 X171.478 Y123.141 E0.4117
G1 X171.505 Y123.176 E0.4132
G1 X171.806 Y123.641 E0.4316
G1 X171.831 Y123.688 E0.4334
G1 X171.989 Y124.061 E0.4469
G1 X172.005 Y124.111 E0.4486
G1 X172.138 Y124.696 E0.4686
G1 X172.144 Y124.730 E0.4697
G1 X172.172 Y124.986 E0.4783
G1 X172.174 Y125.019 E0.4794
G1 X172.175 Y148.429 E1.2580
G1 X172.174 Y148.452 E1.2588
G1 X172.160 Y148.629 E1.2647
G1 X172.157 Y148.652 E1.2654
G1 X172.088 Y149.098 E1.2805
G1 X172.079 Y149.139 E1.2819
G1 X171.985 Y149.449 E1.2926
G1 X171.970 Y149.488 E1.2940
G1 X171.764 Y149.930 E1.3102
G1 X171.744 Y149.966 E1.3116
G1 X171.570 Y150.235 E1.3223
G1 X171.545 Y150.269 E1.3237
G1 X171.203 Y150.663 E1.3410
G1 X171.170 Y150.696 E1.3426
G1 X170.897 Y150.927 E1.3545
G1 X170.859 Y150.954 E1.3560
G1 X170.382 Y151.245 E1.3746
G1 X170.338 Y151.267 E1.3762
G1 X169.991 Y151.407 E1.3887
G1 X169.945 Y151.422 E1.3903
