; G-Code generated by Simplify3D(R) Version 4.0.1
; Jul 12, 2022 at 12:37:11 PM
; Settings Summary
;   processName,FriBox
;   applyToModels,FAS.v1.0.0.Print1
;   profileName,FriBox-Default
;   profileVersion,2018-12-20 11:03:27
;   baseProfile,Default
;   printMaterial,
;   printQuality,
;   printExtruders,
;   extruderName,Primary Extruder
;   extruderToolheadNumber,0
;   extruderDiameter,0.4
;   extruderAutoWidth,0
;   extruderWidth,0.4
;   extrusionMultiplier,1
;   extruderUseRetract,1
;   extruderRetractionDistance,1
;   extruderExtraRestartDistance,0
;   extruderRetractionZLift,0
;   extruderRetractionSpeed,1800
;   extruderUseCoasting,0
;   extruderCoastingDistance,0.2
;   extruderUseWipe,0
;   extruderWipeDistance,5
;   primaryExtruder,0
;   layerHeight,0.25
;   topSolidLayers,4
;   bottomSolidLayers,4
;   perimeterOutlines,2
;   printPerimetersInsideOut,1
;   startPointOption,2
;   startPointOriginX,0
;   startPointOriginY,0
;   sequentialIslands,0
;   spiralVaseMode,0
;   firstLayerHeightPercentage,100
;   firstLayerWidthPercentage,100
;   firstLayerUnderspeed,0.5
;   useRaft,0
;   raftExtruder,0
;   raftTopLayers,3
;   raftBaseLayers,1
;   raftOffset,2
;   raftSeparationDistance,0.1
;   raftTopInfill,100
;   aboveRaftSpeedMultiplier,0.5
;   useSkirt,1
;   skirtExtruder,0
;   skirtLayers,1
;   skirtOutlines,3
;   skirtOffset,2
;   usePrimePillar,0
;   primePillarExtruder,999
;   primePillarWidth,12
;   primePillarLocation,7
;   primePillarSpeedMultiplier,1
;   useOozeShield,0
;   oozeShieldExtruder,999
;   oozeShieldOffset,2
;   oozeShieldOutlines,1
;   oozeShieldSidewallShape,1
;   oozeShieldSidewallAngle,30
;   oozeShieldSpeedMultiplier,1
;   infillExtruder,0
;   internalInfillPattern,Rectilinear
;   externalInfillPattern,Rectilinear
;   infillPercentage,100
;   outlineOverlapPercentage,25
;   infillExtrusionWidthPercentage,140
;   minInfillLength,2
;   infillLayerInterval,1
;   internalInfillAngles,45,-45
;   overlapInternalInfillAngles,0
;   externalInfillAngles,45,-45
;   generateSupport,1
;   supportExtruder,0
;   supportInfillPercentage,25
;   supportExtraInflation,0
;   supportBaseLayers,0
;   denseSupportExtruder,0
;   denseSupportLayers,0
;   denseSupportInfillPercentage,100
;   supportLayerInterval,1
;   supportHorizontalPartOffset,0.4
;   supportUpperSeparationLayers,1
;   supportLowerSeparationLayers,1
;   supportType,0
;   supportGridSpacing,3.5
;   maxOverhangAngle,42
;   supportAngles,0
;   temperatureName,E0,Bed
;   temperatureNumber,0,1
;   temperatureSetpointCount,2,2
;   temperatureSetpointLayers,1,2,1,2
;   temperatureSetpointTemperatures,200,197,65,60
;   temperatureStabilizeAtStartup,1,1
;   temperatureHeatedBed,0,1
;   temperatureRelayBetweenLayers,0,0
;   temperatureRelayBetweenLoops,0,0
;   fanLayers,1,2
;   fanSpeeds,0,100
;   blipFanToFullPower,1
;   adjustSpeedForCooling,1
;   minSpeedLayerTime,15
;   minCoolingSpeedSlowdown,20
;   increaseFanForCooling,0
;   minFanLayerTime,45
;   maxCoolingFanSpeed,100
;   increaseFanForBridging,0
;   bridgingFanSpeed,100
;   use5D,1
;   relativeEdistances,0
;   allowEaxisZeroing,1
;   independentExtruderAxes,0
;   includeM10123,0
;   stickySupport,1
;   applyToolheadOffsets,0
;   gcodeXoffset,0
;   gcodeYoffset,0
;   gcodeZoffset,0
;   overrideMachineDefinition,1
;   machineTypeOverride,0
;   strokeXoverride,195
;   strokeYoverride,190
;   strokeZoverride,280
;   originOffsetXoverride,0
;   originOffsetYoverride,0
;   originOffsetZoverride,0
;   homeXdirOverride,-1
;   homeYdirOverride,-1
;   homeZdirOverride,-1
;   flipXoverride,1
;   flipYoverride,-1
;   flipZoverride,1
;   toolheadOffsets,0,0|0,0|0,0|0,0|0,0|0,0
;   overrideFirmwareConfiguration,0
;   firmwareTypeOverride,RepRap (Marlin/Repetier/Sprinter)
;   GPXconfigOverride,r2
;   baudRateOverride,115200
;   overridePrinterModels,0
;   printerModelsOverride
;   startingGcode,G21 ;metric values,G90 ;absolute positioning,M82 ;set extruder to absolute mode,M107 ;start with the fan off,G28 X0 Y0 ;move X/Y to min endstops,G28 Z0 ;move Z to min endstops,G1 Z15.0 F9000 ;move the platform down 15mm,G92 E0 ;zero the extruded length,G1 F200 E3 ;extrude 3mm of feed stock,G92 E0 ;zero the extruded length again,G1 F9000,M300 S3000 P800,M117 Printing...
;   layerChangeGcode,
;   retractionGcode,
;   toolChangeGcode,
;   endingGcode,M104 S0 ;extruder heater off,M140 S0 ;heated bed heater off (if you have it),G91 ;relative positioning,G1 E-1 F300  ;retract the filament a bit before lifting the nozzle, to release some of the pressure,G1 Z+0.5 E-5 X-20 Y-20 F9000 ;move Z up a bit and retract filament even more,G28 X0 Y0 ;move X/Y to min endstops, so the head is out of the way,M84 ;steppers off,G90 ;absolute positioning,M300 S4000 P700,M300 S2000 P700
;   exportFileFormat,gcode
;   celebration,0
;   celebrationSong,Random Song
;   postProcessing,
;   defaultSpeed,3000
;   outlineUnderspeed,0.45
;   solidInfillUnderspeed,0.6
;   supportUnderspeed,0.55
;   rapidXYspeed,3600
;   rapidZspeed,1002
;   minBridgingArea,50
;   bridgingExtraInflation,0
;   bridgingExtrusionMultiplier,1
;   bridgingSpeedMultiplier,1
;   useFixedBridgingAngle,0
;   fixedBridgingAngle,0
;   applyBridgingToPerimeters,0
;   filamentDiameters,1.75|1.75|1.75|1.75|1.75|1.75
;   filamentPricesPerKg,65|46|46|46|46|46
;   filamentDensities,1.25|1.25|1.25|1.25|1.25|1.25
;   useMinPrintHeight,0
;   minPrintHeight,0
;   useMaxPrintHeight,0
;   maxPrintHeight,0
;   useDiaphragm,1
;   diaphragmLayerInterval,30
;   robustSlicing,1
;   mergeAllIntoSolid,0
;   onlyRetractWhenCrossingOutline,1
;   retractBetweenLayers,1
;   useRetractionMinTravel,0
;   retractionMinTravel,3
;   retractWhileWiping,0
;   onlyWipeOutlines,1
;   avoidCrossingOutline,0
;   maxMovementDetourFactor,3
;   toolChangeRetractionDistance,12
;   toolChangeExtraRestartDistance,-0.5
;   toolChangeRetractionSpeed,600
;   externalThinWallType,0
;   internalThinWallType,2
;   thinWallAllowedOverlapPercentage,20
;   singleExtrusionMinLength,1
;   singleExtrusionMinPrintingWidthPercentage,50
;   singleExtrusionMaxPrintingWidthPercentage,200
;   singleExtrusionEndpointExtension,0.2
;   horizontalSizeCompensation,0
G90
M82
M106 S255
G4 P500
M106 S0
M140 S65
M190 S65
M104 S200 T0
M109 S200 T0
G21 ;metric values
G90 ;absolute positioning
M82 ;set extruder to absolute mode
M107 ;start with the fan off
G28 X0 Y0 ;move X/Y to min endstops
G28 Z0 ;move Z to min endstops
G1 Z15.0 F9000 ;move the platform down 15mm
G92 E0 ;zero the extruded length
G1 F200 E3 ;extrude 3mm of feed stock
G92 E0 ;zero the extruded length again
G1 F9000
M300 S3000 P800
M117 Printing...
G92 E0
G1 E-1.0000 F1800
G1 Z0.250 F1002
; process FriBox
; layer 1, Z = 0.250
T0
; tool H0.250 W0.400
; skirt
G1 X25.950 Y38.921 F3600
G1 E0.0000 F540
G92 E0
G1 X26.845 Y38.542 E0.0404 F1500
G1 X27.034 Y38.502 E0.0484
G1 X27.703 Y38.491 E0.0763
G1 X27.707 Y38.491 E0.0764
G1 X27.727 Y38.491 E0.0773
G1 X27.731 Y38.491 E0.0774
G1 X83.656 Y38.493 E2.4025
G1 X83.849 Y38.532 E2.4107
G1 X84.766 Y38.912 E2.4519
G1 X84.930 Y39.021 E2.4601
G1 X88.343 Y42.434 E2.6608
G1 X88.452 Y42.598 E2.6690
G1 X88.832 Y43.515 E2.7103
G1 X88.870 Y43.708 E2.7184
G1 X88.870 Y146.292 E6.9834
G1 X88.832 Y146.485 E6.9916
G1 X88.452 Y147.402 E7.0328
G1 X88.343 Y147.566 E7.0410
G1 X84.930 Y150.979 E7.2417
G1 X84.766 Y151.088 E7.2499
G1 X83.849 Y151.468 E7.2912
G1 X83.656 Y151.507 E7.2993
G1 X27.072 Y151.507 E9.6518
G1 X26.879 Y151.468 E9.6600
G1 X25.962 Y151.088 E9.7013
G1 X25.798 Y150.979 E9.7095
G1 X22.385 Y147.566 E9.9101
G1 X22.275 Y147.402 E9.9183
G1 X21.896 Y146.485 E9.9596
G1 X21.857 Y146.292 E9.9678
G1 X21.857 Y43.708 E14.2327
G1 X21.896 Y43.515 E14.2409
G1 X22.275 Y42.598 E14.2822
G1 X22.385 Y42.434 E14.2904
G1 X25.790 Y39.029 E14.4906
G1 X25.950 Y38.921 E14.4986
G92 E0
G1 E-1.0000 F1800
G1 X92.143 Y46.591 F3600
G1 E0.0000 F1800
G92 E0
G1 X92.149 Y46.540 E0.0022 F1500
G1 X92.192 Y46.285 E0.0129
G1 X92.204 Y46.234 E0.0151
G1 X92.410 Y45.492 E0.0471
G1 X92.432 Y45.429 E0.0499
G1 X92.561 Y45.127 E0.0635
G1 X92.591 Y45.068 E0.0663
G1 X93.002 Y44.374 E0.0998
G1 X93.039 Y44.319 E0.1026
G1 X93.243 Y44.060 E0.1163
G1 X93.287 Y44.011 E0.1190
G1 X93.837 Y43.474 E0.1510
G1 X93.874 Y43.442 E0.1530
G1 X94.068 Y43.287 E0.1633
G1 X94.108 Y43.258 E0.1654
G1 X94.514 Y42.995 E0.1855
G1 X94.556 Y42.971 E0.1875
G1 X94.767 Y42.861 E0.1974
G1 X94.811 Y42.841 E0.1994
G1 X95.476 Y42.573 E0.2292
G1 X95.521 Y42.557 E0.2312
G1 X95.750 Y42.489 E0.2411
G1 X95.796 Y42.478 E0.2431
G1 X96.248 Y42.390 E0.2622
G1 X96.288 Y42.384 E0.2639
G1 X96.487 Y42.361 E0.2722
G1 X96.527 Y42.358 E0.2739
G1 X97.232 Y42.335 E0.3033
G1 X97.240 Y42.335 E0.3036
G1 X97.281 Y42.334 E0.3053
G1 X97.289 Y42.334 E0.3056
G1 X116.366 Y42.336 E1.0987
G1 X116.734 Y42.489 E1.1153
G1 X118.186 Y43.941 E1.2007
G1 X118.338 Y44.309 E1.2172
G1 X118.338 Y57.222 E1.7541
G1 X129.311 Y57.222 E2.2103
G1 X129.311 Y44.308 E2.7472
G1 X129.463 Y43.941 E2.7637
G1 X130.918 Y42.487 E2.8492
G1 X131.286 Y42.335 E2.8658
G1 X151.046 Y42.353 E3.6873
G1 X151.094 Y42.356 E3.6893
G1 X151.333 Y42.379 E3.6993
G1 X151.380 Y42.386 E3.7013
G1 X151.851 Y42.477 E3.7212
G1 X151.898 Y42.489 E3.7232
G1 X152.127 Y42.557 E3.7331
G1 X152.172 Y42.572 E3.7351
G1 X152.879 Y42.858 E3.7668
G1 X152.937 Y42.886 E3.7695
G1 X153.219 Y43.045 E3.7830
G1 X153.273 Y43.080 E3.7857
G1 X153.926 Y43.569 E3.8195
G1 X153.976 Y43.612 E3.8223
G1 X154.214 Y43.844 E3.8361
G1 X154.258 Y43.893 E3.8389
G1 X154.748 Y44.522 E3.8720
G1 X154.785 Y44.575 E3.8747
G1 X154.950 Y44.854 E3.8882
G1 X154.979 Y44.912 E3.8909
G1 X155.297 Y45.656 E3.9245
G1 X155.320 Y45.720 E3.9273
G1 X155.410 Y46.046 E3.9414
G1 X155.423 Y46.112 E3.9442
G1 X155.521 Y46.835 E3.9745
G1 X155.524 Y46.869 E3.9759
G1 X155.535 Y47.036 E3.9829
G1 X155.536 Y47.069 E3.9843
G1 X155.539 Y67.341 E4.8271
G1 X155.386 Y67.708 E4.8436
G1 X153.933 Y69.162 E4.9290
G1 X153.566 Y69.314 E4.9456
G1 X137.538 Y69.314 E5.6119
G1 X137.538 Y80.286 E6.0681
G1 X153.566 Y80.286 E6.7345
G1 X153.933 Y80.438 E6.7510
G1 X155.386 Y81.891 E6.8364
G1 X155.538 Y82.259 E6.8530
G1 X155.541 Y146.680 E9.5313
G1 X155.541 Y146.689 E9.5317
G1 X155.540 Y146.736 E9.5336
G1 X155.539 Y146.745 E9.5340
G1 X155.515 Y147.401 E9.5613
G1 X155.512 Y147.443 E9.5630
G1 X155.487 Y147.651 E9.5717
G1 X155.480 Y147.692 E9.5735
G1 X155.385 Y148.151 E9.5929
G1 X155.372 Y148.199 E9.5950
G1 X155.297 Y148.438 E9.6054
G1 X155.280 Y148.485 E9.6075
G1 X154.980 Y149.187 E9.6392
G1 X154.951 Y149.245 E9.6419
G1 X154.786 Y149.523 E9.6554
G1 X154.749 Y149.577 E9.6581
G1 X154.283 Y150.174 E9.6896
G1 X154.251 Y150.212 E9.6916
G1 X154.078 Y150.392 E9.7021
G1 X154.041 Y150.427 E9.7041
G1 X153.664 Y150.750 E9.7248
G1 X153.625 Y150.780 E9.7268
G1 X153.422 Y150.921 E9.7371
G1 X153.381 Y150.948 E9.7392
G1 X152.716 Y151.320 E9.7708
G1 X152.659 Y151.348 E9.7735
G1 X152.364 Y151.467 E9.7867
G1 X152.304 Y151.486 E9.7893
G1 X151.550 Y151.684 E9.8217
G1 X151.495 Y151.695 E9.8240
G1 X151.218 Y151.736 E9.8357
G1 X151.162 Y151.741 E9.8380
G1 X150.412 Y151.765 E9.8692
G1 X150.404 Y151.765 E9.8696
G1 X150.364 Y151.766 E9.8712
G1 X150.356 Y151.766 E9.8716
G1 X97.230 Y151.766 E12.0803
G1 X97.221 Y151.766 E12.0807
G1 X97.176 Y151.765 E12.0825
G1 X97.167 Y151.765 E12.0829
G1 X96.519 Y151.741 E12.1098
G1 X96.480 Y151.738 E12.1115
G1 X96.286 Y151.716 E12.1196
G1 X96.247 Y151.710 E12.1212
G1 X95.798 Y151.623 E12.1403
G1 X95.752 Y151.611 E12.1422
G1 X95.523 Y151.543 E12.1522
G1 X95.478 Y151.528 E12.1542
G1 X94.771 Y151.242 E12.1859
G1 X94.712 Y151.214 E12.1885
G1 X94.430 Y151.055 E12.2020
G1 X94.376 Y151.020 E12.2047
G1 X93.723 Y150.531 E12.2386
G1 X93.673 Y150.488 E12.2414
G1 X93.436 Y150.256 E12.2552
G1 X93.392 Y150.207 E12.2579
G1 X92.901 Y149.578 E12.2910
G1 X92.864 Y149.525 E12.2937
G1 X92.700 Y149.246 E12.3072
G1 X92.670 Y149.188 E12.3099
G1 X92.369 Y148.484 E12.3417
G1 X92.352 Y148.437 E12.3438
G1 X92.277 Y148.198 E12.3542
G1 X92.264 Y148.149 E12.3563
G1 X92.169 Y147.688 E12.3759
G1 X92.162 Y147.646 E12.3777
G1 X92.137 Y147.434 E12.3866
G1 X92.133 Y147.391 E12.3884
G1 X92.110 Y146.673 E12.4182
G1 X92.110 Y146.665 E12.4186
G1 X92.109 Y146.624 E12.4203
G1 X92.109 Y146.616 E12.4206
G1 X92.113 Y47.113 E16.5575
G1 X92.113 Y47.097 E16.5581
G1 X92.116 Y47.016 E16.5615
G1 X92.117 Y47.000 E16.5621
G1 X92.143 Y46.591 E16.5792
G92 E0
G1 E-1.0000 F1800
G1 X157.564 Y92.115 F3600
G1 E0.0000 F1800
G92 E0
G1 X157.969 Y91.545 E0.0291 F1500
G1 X158.033 Y91.472 E0.0331
G1 X158.386 Y91.138 E0.0533
G1 X158.462 Y91.079 E0.0573
G1 X158.980 Y90.750 E0.0828
G1 X159.064 Y90.708 E0.0867
G1 X159.499 Y90.535 E0.1062
G1 X159.589 Y90.509 E0.1101
G1 X160.085 Y90.413 E0.1311
G1 X160.132 Y90.407 E0.1331
G1 X160.369 Y90.384 E0.1430
G1 X160.417 Y90.382 E0.1449
G1 X168.855 Y90.382 E0.4958
G1 X168.903 Y90.384 E0.4978
G1 X169.140 Y90.407 E0.5077
G1 X169.188 Y90.413 E0.5096
G1 X169.722 Y90.516 E0.5323
G1 X169.826 Y90.549 E0.5368
G1 X170.328 Y90.766 E0.5596
G1 X170.423 Y90.820 E0.5641
G1 X170.990 Y91.230 E0.5932
G1 X171.062 Y91.294 E0.5972
G1 X171.389 Y91.644 E0.6171
G1 X171.448 Y91.720 E0.6211
G1 X171.773 Y92.236 E0.6465
G1 X171.815 Y92.320 E0.6503
G1 X171.986 Y92.755 E0.6698
G1 X172.012 Y92.845 E0.6737
G1 X172.106 Y93.337 E0.6945
G1 X172.112 Y93.384 E0.6965
G1 X172.134 Y93.617 E0.7062
G1 X172.136 Y93.664 E0.7082
G1 X172.136 Y116.601 E1.6618
G1 X172.134 Y116.648 E1.6637
G1 X172.111 Y116.886 E1.6737
G1 X172.105 Y116.933 E1.6756
G1 X172.002 Y117.467 E1.6983
G1 X171.969 Y117.571 E1.7028
G1 X171.752 Y118.074 E1.7255
G1 X171.698 Y118.168 E1.7301
G1 X171.287 Y118.735 E1.7592
G1 X171.224 Y118.807 E1.7632
G1 X170.874 Y119.135 E1.7831
G1 X170.798 Y119.193 E1.7871
G1 X170.281 Y119.518 E1.8125
G1 X170.198 Y119.560 E1.8163
G1 X169.762 Y119.732 E1.8358
G1 X169.673 Y119.757 E1.8397
G1 X169.181 Y119.851 E1.8605
G1 X169.134 Y119.857 E1.8625
G1 X168.901 Y119.879 E1.8722
G1 X168.854 Y119.882 E1.8742
G1 X160.417 Y119.882 E2.2249
G1 X160.370 Y119.879 E2.2269
G1 X160.132 Y119.857 E2.2368
G1 X160.085 Y119.850 E2.2388
G1 X159.577 Y119.752 E2.2603
G1 X159.482 Y119.724 E2.2644
G1 X159.025 Y119.537 E2.2850
G1 X158.937 Y119.491 E2.2891
G1 X158.384 Y119.124 E2.3167
G1 X158.305 Y119.059 E2.3209
G1 X157.945 Y118.697 E2.3421
G1 X157.881 Y118.618 E2.3464
G1 X157.519 Y118.064 E2.3739
G1 X157.473 Y117.977 E2.3780
G1 X157.290 Y117.523 E2.3983
G1 X157.263 Y117.429 E2.4024
G1 X157.167 Y116.926 E2.4237
G1 X157.161 Y116.880 E2.4256
G1 X157.138 Y116.646 E2.4354
G1 X157.136 Y116.599 E2.4373
G1 X157.136 Y93.664 E3.3909
G1 X157.138 Y93.617 E3.3928
G1 X157.161 Y93.384 E3.4026
G1 X157.167 Y93.337 E3.4045
G1 X157.267 Y92.809 E3.4269
G1 X157.299 Y92.706 E3.4313
G1 X157.511 Y92.209 E3.4538
G1 X157.564 Y92.115 E3.4583
G1 X160.283 Y123.073 F3600
G92 E0
G1 X160.355 Y123.068 E0.0030 F1500
G1 X170.423 Y123.068 E0.4216
G1 X170.496 Y123.073 E0.4246
G1 X170.858 Y123.127 E0.4399
G1 X170.929 Y123.143 E0.4429
G1 X171.609 Y123.347 E0.4724
G1 X171.743 Y123.410 E0.4785
G1 X172.359 Y123.820 E0.5093
G1 X172.469 Y123.919 E0.5154
G1 X173.007 Y124.571 E0.5506
G1 X173.072 Y124.672 E0.5556
G1 X173.335 Y125.219 E0.5808
G1 X173.374 Y125.333 E0.5859
G1 X173.486 Y125.868 E0.6086
G1 X173.494 Y125.919 E0.6107
G1 X173.521 Y126.177 E0.6215
G1 X173.523 Y126.228 E0.6236
G1 X173.526 Y147.294 E1.4994
G1 X173.522 Y147.354 E1.5020
G1 X173.485 Y147.656 E1.5146
G1 X173.474 Y147.715 E1.5171
G1 X173.326 Y148.313 E1.5427
G1 X173.279 Y148.434 E1.5481
G1 X172.966 Y149.005 E1.5752
G1 X172.889 Y149.110 E1.5806
G1 X172.326 Y149.701 E1.6145
G1 X172.222 Y149.785 E1.6201
G1 X171.650 Y150.130 E1.6479
G1 X171.528 Y150.183 E1.6534
G1 X170.891 Y150.365 E1.6809
G1 X170.823 Y150.379 E1.6838
G1 X170.479 Y150.427 E1.6983
G1 X170.410 Y150.432 E1.7011
G1 X160.354 Y150.432 E2.1192
G1 X160.283 Y150.427 E2.1222
G1 X159.929 Y150.376 E2.1370
G1 X159.860 Y150.361 E2.1400
G1 X159.228 Y150.176 E2.1673
G1 X159.108 Y150.123 E2.1728
G1 X158.546 Y149.780 E2.2002
G1 X158.444 Y149.697 E2.2057
G1 X157.886 Y149.112 E2.2392
G1 X157.810 Y149.008 E2.2446
G1 X157.499 Y148.444 E2.2714
G1 X157.451 Y148.324 E2.2768
G1 X157.301 Y147.727 E2.3024
